assets/Middle finger/Medium/Flat/middle_finger_flat_medium.svg

<svg width="32" height="32" viewBox="0 0 32 32" fill="none" xmlns="http://www.w3.org/2000/svg">
<path d="M23.7031 12.3125C22.5156 12.2187 21.9922 13.1094 21.9922 13.1094C21.9922 13.1094 21.3906 11.3438 19.8125 11.1406C18.6514 10.9912 17.9844 11.5547 17.9844 11.5547V4.53125C17.9844 2.79688 16.6113 2 15.5312 2C14.4412 2 13.0156 2.875 13.0156 4.53125V12.7344C13.0156 12.7344 12.2935 11.8847 11.0312 11.9766C9.76897 12.0685 8.96877 12.7344 8.96877 15.4219C8.96877 15.4219 5.98438 14.7413 5.98438 17.8906C5.98438 24.9219 9.78129 30 15.86 30C23.9219 30 25.9688 21.375 25.9688 14.625C25.9688 13.1094 24.8906 12.4062 23.7031 12.3125Z" fill="#C68D7B"/>
<path d="M14 6C14 3.77843 14.482 2.52794 14.9006 2.0899C13.961 2.35188 13.0156 3.18254 13.0156 4.53125V7.67464C13.0255 8.08454 13.0312 8.50182 13.0312 8.92188C13.0312 9.76689 13.0239 10.7406 13.0156 11.6924V12.7344L13.0064 12.7256C12.9987 13.5895 12.9922 14.3846 12.9922 14.9844C12.9922 14.9844 14 14.2344 14 13.2969L14 6Z" fill="#A9715F"/>
<path d="M9.01562 16.5156V14.4008C9.13705 13.2117 9.48957 12.5807 10.0156 12.2614L10.0156 16.5156C10.0156 16.7918 9.79177 17.0156 9.51562 17.0156C9.23948 17.0156 9.01562 16.7918 9.01562 16.5156Z" fill="#A9715F"/>
<path d="M17.9844 11.5547V13.2812C17.9844 13.5574 18.2082 13.7812 18.4844 13.7812C18.7605 13.7812 18.9844 13.5574 18.9844 13.2812V11.1502C18.3401 11.2541 17.9844 11.5547 17.9844 11.5547Z" fill="#A9715F"/>
<path d="M21.9844 13.5234V13.0877C21.9896 13.1018 21.9922 13.1094 21.9922 13.1094C21.9922 13.1094 22.3016 12.5829 22.9844 12.3821V13.5234C22.9844 13.7996 22.7605 14.0234 22.4844 14.0234C22.2082 14.0234 21.9844 13.7996 21.9844 13.5234Z" fill="#A9715F"/>
</svg>

<svg xmlns="http://www.w3.org/2000/svg" width="32" height="32" fill="none"><path fill="#C68D7B" d="M23.703 12.313c-1.187-.094-1.71.796-1.71.796s-.602-1.765-2.18-1.968c-1.162-.15-1.829.414-1.829.414V4.53C17.984 2.797 16.611 2 15.531 2c-1.09 0-2.515.875-2.515 2.531v8.203s-.723-.85-1.985-.757c-1.262.091-2.062.757-2.062 3.445 0 0-2.985-.68-2.985 2.469C5.984 24.92 9.781 30 15.86 30c8.062 0 10.109-8.625 10.109-15.375 0-1.516-1.078-2.219-2.266-2.313Z"/><path fill="#A9715F" d="M14 6c0-2.222.482-3.472.9-3.91-.939.262-1.884 1.093-1.884 2.441v3.144c.01.41.015.827.015 1.247 0 .845-.007 1.819-.015 2.77v1.042l-.01-.008c-.007.863-.014 1.659-.014 2.258 0 0 1.008-.75 1.008-1.687V6ZM9.016 16.516V14.4c.121-1.19.474-1.82 1-2.14v4.255a.5.5 0 1 1-1 0ZM17.984 11.555v1.726a.5.5 0 1 0 1 0v-2.13c-.644.103-1 .404-1 .404ZM21.984 13.523v-.435l.008.021s.31-.526.992-.727v1.141a.5.5 0 1 1-1 0Z"/></svg>
